X:1
T:Em Reel
C:François Champs
R:Reel
M:2/2
K:Edor
|: E2EF GFGA | B/c/dce dBAG | FDAD BDAD | FDFA dBAF |
   E2EF GFGA | B/c/dce dBAG | FDFA dBAF | GEED EB,CD :|
|: EGFG BGFG | EGG/G/G EGFE | DA,DF ADFA | dAGA FDDD |
| EGFG BGFG | EGG/G/G EGFE | FDFA dBAF | GEED EB,CD :|